assets/icons/categories.svg

<svg width="20" height="20" viewBox="0 0 20 20" fill="none" xmlns="http://www.w3.org/2000/svg">
<path d="M1.99997 3.10052C1.99997 2.49658 2.48956 2.00699 3.09351 2.00699H7.78009C8.38404 2.00699 8.87363 2.49658 8.87363 3.10053V7.80995C8.87363 8.4139 8.38404 8.90349 7.78009 8.90349H3.09351C2.48956 8.90349 1.99997 8.41389 1.99997 7.80995V3.10052Z" stroke="currentColor" stroke-width="1.2"/>
<path d="M1.99997 12.1901C1.99997 11.5861 2.48956 11.0965 3.09351 11.0965H7.78009C8.38404 11.0965 8.87363 11.5861 8.87363 12.1901V16.8995C8.87363 17.5034 8.38404 17.993 7.78009 17.993H3.09351C2.48956 17.993 1.99997 17.5034 1.99997 16.8995V12.1901Z" stroke="currentColor" stroke-width="1.2"/>
<path d="M11.1263 14.5448C11.1263 12.6467 12.665 11.0965 14.5631 11.0965C16.4612 11.0965 18 12.6467 18 14.5448C18 16.4429 16.4612 17.993 14.5631 17.993C12.665 17.993 11.1263 16.4429 11.1263 14.5448Z" stroke="currentColor" stroke-width="1.2"/>
<path d="M11.1263 3.10052C11.1263 2.49658 11.6159 2.00699 12.2198 2.00699H16.9064C17.5104 2.00699 18 2.49658 18 3.10053V7.80995C18 8.4139 17.5104 8.90349 16.9064 8.90349H12.2198C11.6159 8.90349 11.1263 8.41389 11.1263 7.80995V3.10052Z" stroke="currentColor" stroke-width="1.2"/>
</svg>

<svg xmlns="http://www.w3.org/2000/svg" width="20" height="20" fill="none" viewBox="0 0 20 20"><path stroke="currentColor" stroke-width="1.2" d="M2 3.1c0-.603.49-1.093 1.094-1.093H7.78c.604 0 1.094.49 1.094 1.094V7.81c0 .604-.49 1.093-1.094 1.093H3.094C2.49 8.903 2 8.413 2 7.81zm0 9.09c0-.604.49-1.093 1.094-1.093H7.78c.604 0 1.094.49 1.094 1.093v4.71c0 .603-.49 1.093-1.094 1.093H3.094C2.49 17.993 2 17.503 2 16.9zm9.126 2.355a3.447 3.447 0 0 1 3.437-3.448A3.447 3.447 0 0 1 18 14.545a3.447 3.447 0 0 1-3.437 3.448 3.447 3.447 0 0 1-3.437-3.448Zm0-11.445c0-.603.49-1.093 1.094-1.093h4.686c.604 0 1.094.49 1.094 1.094V7.81c0 .604-.49 1.093-1.094 1.093H12.22c-.604 0-1.094-.49-1.094-1.093z"/></svg>
